X:1
T:Green Mountain
M:3/4
L:1/8
K:Bb
 z4 D2| G2 G2 GA|G-F D2 C3/2 C/2| B,2C-DE-F| G4 D2| G2 G2G-A|G-F D2 C2|\
 B,2C-DE-F| G4 B3/2 c/2| d2 A2B-d| c2 c2d-c|B-A G2 A2| D4 B3/2 c/2|\
 d2 A2 B2| A2 G2 B,2| C2D-=E ^F2| G4 z2|
